source/img/index__images/hit-ribbon.svg

<svg width="74" height="74" viewBox="0 0 74 74" fill="none" xmlns="http://www.w3.org/2000/svg">
<path d="M74 0L37 37L0 74V41L41 0H74Z" fill="#D22856"/>
<path d="M27.9192 37.2229L26.9863 38.1558L21.9785 36.9474L23.1531 41.989L22.2831 42.8591L20.9393 36.8169L15.3757 35.6326L16.2844 34.7239L20.8378 35.768L19.8082 31.2001L20.6831 30.3252L21.8384 35.8598L27.9192 37.2229ZM21.8722 29.1361L22.6408 28.3675L26.5706 32.2974C27.2956 33.0224 27.9289 33.7008 28.4702 34.3324L28.5089 34.2937L26.5754 24.4329L27.4745 23.5338L34.5414 30.6007L33.768 31.3741L29.8769 27.483C29.2291 26.8352 28.5766 26.1279 27.9192 25.3609L27.8757 25.4044L29.8382 35.3039L28.9391 36.203L21.8722 29.1361ZM38.6549 26.4872L37.8332 27.3089L31.4962 20.9719L29.2581 23.2099L28.5283 22.48L33.826 17.1823L34.5559 17.9122L32.3179 20.1502L38.6549 26.4872Z" fill="white"/>
</svg>

<svg width="74" height="74" fill="none" xmlns="http://www.w3.org/2000/svg"><path d="M74 0L37 37 0 74V41L41 0h33z" fill="#D22856"/><path d="M27.92 37.223l-.934.933-5.008-1.209 1.175 5.042-.87.87-1.344-6.042-5.563-1.184.908-.91 4.554 1.045-1.03-4.568.875-.875 1.155 5.535 6.081 1.363zm-6.048-8.087l.769-.768 3.93 3.93a36.528 36.528 0 011.9 2.034l.038-.038-1.934-9.861.9-.9 7.066 7.068-.773.773-3.891-3.891a37.658 37.658 0 01-1.958-2.122l-.043.043 1.962 9.9-.899.899-7.067-7.067zm16.783-2.649l-.822.822-6.337-6.337-2.238 2.238-.73-.73 5.298-5.298.73.73-2.238 2.238 6.337 6.337z" fill="#fff"/></svg>
